X: 77
T: Off to California
T: the Whiskey Hornpipe
R: hornpipe, reel
N: Similar to Green Fields of America and Old Mother Flanigan
Z: 1997 by John Chambers <jc:trillian.mit.edu>
M: C|
L: 1/8
K: G
D{E}F |\
"G"G2GB "D7"AFED | "G"GBdg "C"e2"D7"d{e}f |\
"G"g2gd "Em"edBG |1,3"Am"ABAG "D7"E2 :|2,4 "D7"ABAF "G"G2 :|
|: d{e}f |\
"Em"gfeg "D"fedf | "Em"edef edB2 |\
"G"gfgd "Em"edBG | "Am"ABAG "D7"E2D{E}F |
y4y2 | \
"G"~G2GB "D7"AFED | "G"GBdg "C"e2"D7"d{e}f |\
"G"gfgd "Em"edBG | "D7"ABAF "G"G2 :|

%%sep 1 1 500

